!!!COM: Joplin, Scott
!!!CDT: 1868/11/24/-1917/04/01/
!!!OTL: A Breeze from Alabama
!!!ONB: March and Two-Step
!!!ODT: 1902///
!!!PPR: John Stark & Son
!!!PPP: St. Louis, Missouri
!!!PDT: 1902///
!!!ENC: Craig Stuart Sapp
!!!END: 2004/06/09/
!!!YEC: Copyright 2004 by Craig Stuart Sapp
!!!YEN: United States of America
**kern	**kern	**dynam
*staff2	*staff1	*staff1
*Ipiano	*Ipiano	*Ipiano
*>[I,A,A1,A,A2,B,B1,B,B2,C,C1,C,C2,D,E,E1,E2,F,G,G1,G,G2]	*>[I,A,A1,A,A2,B,B1,B,B2,C,C1,C,C2,D,E,E1,E2,F,G,G1,G,G2]	*>[I,A,A1,A,A2,B,B1,B,B2,C,C1,C,C2,D,E,E1,E2,F,G,G1,G,G2]
*>norep[I,A,A2,B,B2,C,C2,D,E,E2,F,G,G2]	*>norep[I,A,A2,B,B2,C,C2,D,E,E2,F,G,G2]	*>norep[I,A,A2,B,B2,C,C2,D,E,E2,F,G,G2]
*>I	*>I	*>I
*clefF4	*clefG2	*clefG2
*k[]	*k[]	*k[]
*M2/4	*M2/4	*M2/4
*MM90	*MM90	*MM90
8c\	8e/ 8g/	.
=1	=1	=1
*^	*^	*
8c/L	8F#\ 8A\	8cc/L	8d#\ 8cc\	.
16A/L	8r	16a/L	8r	.
16G#/JJ	.	16g#/JJ	.	.
16A/LL	8r	16a/LL	8r	.
16B/J	.	16b/J	.	.
[8c/J	[8Gn\	[8cc/J	[8e\	.
*v	*v	*	*	*
*	*v	*v	*
=2	=2	=2
16G\] 16c\LL]	16e\] 16cc\LL]	.
16G\	16g\	.
16E\	16e\	.
16D#\JJ	16d#\JJ	.
16E\LL	16e/LL	.
16F\J	16f/J	.
[8G\J	[8g/J	.
=3	=3	=3
16G\LL]	16g/LL]	.
16F\	16f/	.
16D\	16d/	.
16C#\JJ	16c#/JJ	.
16E\LL	16e/LL	.
16D\	16d/	.
16BB\	16B/	.
16AA\JJ	16A/JJ	.
=4	=4	=4
8GG/	8G/	.
8r	8r	.
8GGG/ 8GG/	8g\ 8b\ 8dd\ 8gg\L	.
8r	8g\J	.
=5!|:	=5!|:	=5!|:
*>A	*>A	*>A
8C\L	16g/ 16ee/LL	f
.	16f#/ 16dd#/	.
8G\ 8c\ 8e\J	16g/ 16ee/	.
.	[16e/ [16cc/JJ	.
8GG\L	16e/] 16cc/LL]	.
.	16e/	.
8G\ 8c\ 8e\J	16fn/	.
.	16f#/JJ	.
=6	=6	=6
8C\L	16g\LL	.
.	16cc\	.
8G\ 8c\ 8e\J	16ee\	.
.	[16g\ [16ee\ [16gg\JJ	.
8GG\L	16g\] 16ee\] 16gg\LL]	.
.	16f#\ 16dd#\ 16ff#\J	.
8G\ 8c\ 8e\J	8g\ 8ee\ 8gg\J	.
=7	=7	=7
8C\L	16g/ 16ee/LL	.
.	16f#/ 16dd#/	.
8G\ 8c\ 8e\J	16g/ 16ee/	.
.	[16e/ [16cc/JJ	.
8GG\L	16e/] 16cc/LL]	.
.	16e/	.
8G\ 8c\ 8e\J	16fn/	.
.	16f#/JJ	.
=8	=8	=8
8C\L	16g\LL	.
.	16cc\	.
8G\ 8c\ 8e\J	16ee\	.
.	[16g\ [16ee\ [16gg\JJ	.
8GG\L	16g\] 16ee\] 16gg\LL]	.
.	16f#\ 16dd#\ 16ff#\J	.
8G\ 8c\ 8e\J	8g\ 8ee\ 8gg\J	.
=9	=9	=9
8D\L	16g\ 16gg\LL	.
.	16g#\ 16ff\ 16gg#\	.
8G\ 8B\ 8f\J	16a\ 16ff\ 16aa\	.
.	[16b\ [16ff\ [16bb\JJ	.
8GG\L	16b\] 16ff\] 16bb\LL]	.
.	16gn\ 16ff\ 16ggn\	.
8G\ 8B\ 8f\J	16a\ 16ff\ 16aa\	.
.	16b\ 16ff\ 16bb\JJ	.
=10	=10	=10
8C\L	16cc\ 16ee\ 16ccc\LL	.
.	16b\ 16ee\ 16bb\	.
8G\ 8c\ 8e\J	16cc\ 16ee\ 16ccc\	.
.	[16ee\ [16gg\ [16eee\JJ	.
8C#\L	16ee\] 16gg\] 16eee\LL]	.
.	16dd#\ 16ddd#\J	.
8A#\ 8g\J	8ee\ 8eee\J	.
=11	=11	=11
8D\L	16eee\LL	.
.	16ddd\	.
8B\ 8d\ 8g\J	16ccc#\	.
.	[16ddd\JJ	.
8D\L	16ddd\LL]	.
.	16ee\ 16ccc#\	.
8c\ 8d\ 8f#\J	16dd\ 16bb\	.
.	16cc\ 16aa\JJ	.
=12	=12	=12
*^	*	*
[4d^/ [4g^/	8G\L	[4b^\ [4gg^\	.
.	16Fn\L	.	.
.	[16D\JJ	.	.
8d/] 8g/]	16D\LL]	8b\] 8gg\L]	.
.	16BB\J	.	.
8r	8GG\J	8g\ 8b\ 8dd\ 8ffn\J	.
*v	*v	*	*
=13	=13	=13
8C\L	16g/ 16cc/ 16ee/LL	f
.	16f#/ 16dd#/	.
8G\ 8c\ 8e\J	16g/ 16ee/	.
.	[16e/ [16cc/JJ	.
8GG\L	16e/] 16cc/LL]	.
.	16e/	.
8G\ 8c\ 8e\J	16fn/	.
.	16f#/JJ	.
=14	=14	=14
8C\L	16g\LL	.
.	16cc\	.
8G\ 8c\ 8e\J	16ee\	.
.	[16g\ [16ee\ [16gg\JJ	.
8GG\L	16g\] 16ee\] 16gg\LL]	.
.	16f#\ 16dd#\ 16ff#\J	.
8G\ 8c\ 8e\J	8g\ 8ee\ 8gg\J	.
=15	=15	=15
8C\L	16g/ 16ee/LL	.
.	16f/ 16dd/	.
8G\ 8c\ 8e\J	(16g/ 16ee/	.
.	16g/JJ	.
8C#\L	16g/LL)	.
.	16b-/	.
8G\ 8A\ 8e\J	16a/	.
.	16g#/JJ	.
=16	=16	=16
8D\L	16a\LL	.
.	16dd\	.
8F\ 8A\ 8d\J	16ff\	.
.	[16a\ [16ff\ [16aa\JJ	.
8F\L	16a\] 16ff\] 16aa\LL]	.
.	16ff\	.
8A\ 8d\J	16dd\	.
.	16a\JJ	.
=17	=17	=17
*>A1	*>A1	*>A1
*^	*^	*
8c/L	8F#\ 8A\	8cc/L	8d#\ 8cc\	.
16A/L	8r	16a/L	8r	.
16G#/JJ	.	16g#/JJ	.	.
16A/LL	8r	16a/LL	8r	.
16B/J	.	16b/J	.	.
[8c/J	[8Gn\	[8cc/J	[8e\	.
*v	*v	*	*	*
*	*v	*v	*
=18	=18	=18
16G\] 16c\LL]	16e/] 16cc/LL]	.
16G\	16g/	.
16E\	16e/	.
16D#\JJ	16d#/JJ	.
16E\LL	16e/LL	.
16F\J	16f/J	.
[8G\J	[8g/J	.
=19	=19	=19
16G\LL]	16g/LL]	.
16F\	16f/	.
16D\	16d/	.
16C#\JJ	16c#/JJ	.
16E\LL	16e/LL	.
16D\	16d/	.
16BB\	16B/	.
16AA\JJ	16A/JJ	.
=20	=20	=20
8GG/	8G/	.
8r	8r	.
8GGG/ 8GG/	8g\ 8b\ 8dd\ 8gg\L	.
8r	8g\J	.
=21:|!	=21:|!	=21:|!
*>A2	*>A2	*>A2
8F#\ 8A\ 8c\ 8d#\	16a/LL	.
.	16g#/	.
8r	16a/	.
.	16b/JJ	.
8F#\ 8A\ 8c\ 8d#\	16cc\LL	.
.	16b\	.
8r	16cc\	.
.	16dd\JJ	.
=22	=22	=22
8G\ 8c\ 8e\L	8ee\	.
8AA\ 8A\J	4g\ 4cc#\ 4ff\	.
4AAA/ 4AA/	.	.
.	8g\ 8cc#\ 8ee\	.
=23	=23	=23
8DD\ 8D\L	8f#\ 8ccn\ 8ee\	.
8GG\ 8G\J	4fn\ 4b\ 4ee\	.
4GGG/ 4GG/	.	.
.	8f\ 8b\ 8dd\	.
=24	=24	=24
8CC/ 8C/	8e/ 8cc/	.
8r	8r	.
8CC/ 8C/	8ee\ 8ccc\)	.
8r	8r	.
=25!|:	=25!|:	=25!|:
*>B	*>B	*>B
8FF\L	8a\ 8ff\ 8aa\	f
8A\ 8c\ 8f\J	4cc\ 4aa\ 4ccc\	.
8AA\L	.	.
8A\ 8c\ 8f\J	8a\ 8ff\ 8aa\	.
=26	=26	=26
8C\L	8a\ 8ff\ 8aa\	.
8G\ 8c\ 8e\J	4.g\ 4.ee\ 4.gg\	.
8E\L	.	.
8G\ 8c\ 8e\J	.	.
=27	=27	=27
8GG\L	16dd\ 16ff\LL	.
.	16cc\ 16ee\	.
8G\ 8B\ 8f\J	16b\ 16dd\	.
.	16cc\ 16ee\JJ	.
8BB\L	16dd\ 16ff\LK	.
.	8ff\ 8aa\	.
8G\ 8B\ 8f\J	.	.
.	16ff\ 16aa\Jk	.
=28	=28	=28
8C\L	16ee\ 16gg\LL	.
.	16dd\ 16ff\	.
8G\ 8c\ 8e\J	16cc\ 16ee\	.
.	16dd\ 16ff\JJ	.
8C\L	16ee\ 16gg\LK	.
.	8ee\ 8ccc\	.
8G\ 8c\ 8e\J	.	.
.	16ee\ 16ccc\Jk	.
=29	=29	=29
8FF\L	8a\ 8ff\ 8aa\	.
8A\ 8c\ 8f\J	4cc\ 4aa\ 4ccc\	.
8AA\L	.	.
8A\ 8c\ 8f\J	8a\ 8ff\ 8aa\	.
=30	=30	=30
8C\L	8a\ 8ff\ 8aa\	.
8G\ 8c\ 8e\J	4.g\ 4.ee\ 4.gg\	.
8E\L	.	.
8G\ 8c\ 8e\J	.	.
=31	=31	=31
8AA\ 8A\L	16cc\ 16ee\ 16ccc\LL	.
.	16b\ 16ee\ 16bb\	.
8A\ 8c\ 8e\J	16a\ 16ee\ 16aa\	.
.	16b\ 16ee\ 16bb\JJ	.
8FF/ 8F/L	16cc\ 16aa\ 16ccc\LL	.
.	16cc#\ 16aa\ 16ccc#\	.
8FF/ 8F/J	16dd\ 16aa\ 16bb\ 16ddd\	.
.	16dd#\ 16aa\ 16bb\ 16ddd#\JJ	.
=32	=32	=32
8EE/ 8E/	8ee\ 8gg#\ 8bb\ 8eee\	.
8r	8r	.
4C^\ 4c^\	4b-^\ 4ee^\ 4ggn^\	.
=33	=33	=33
8FF\L	8a\ 8ff\ 8aa\	f
8A\ 8c\ 8f\J	4cc\ 4aa\ 4ccc\	.
8AA\L	.	.
8A\ 8c\ 8f\J	8a\ 8ff\ 8aa\	.
=34	=34	=34
8C\L	8a\ 8ff\ 8aa\	.
8G\ 8c\ 8e\J	4.g\ 4.ee\ 4.gg\	.
8E\L	.	.
8G\ 8c\ 8e\J	.	.
=35	=35	=35
8GG\L	16dd\ 16ff\LL	.
.	16cc\ 16ee\	.
8G\ 8B\ 8f\J	16b\ 16dd\	.
.	16cc\ 16ee\JJ	.
8BB\L	16dd\ 16ff\LK	.
.	8ff\ 8aa\	.
8G\ 8B\ 8f\J	.	.
.	16ff\ 16aa\Jk	.
=36	=36	=36
8C\L	16ee\ 16gg\LL	.
.	16dd\ 16ff\	.
8G\ 8c\ 8e\J	16cc\ 16ee\	.
.	16dd\ 16ff\JJ	.
8E\L	16ee\ 16gg\LK	.
.	8ee\ 8ccc\	.
8G\ 8c\ 8e\J	.	.
.	16ee\ 16ccc\Jk	.
=37	=37	=37
8F\L	8dd\ 8ddd\L	.
8A\ 8c\ 8d\J	[8dd\ [8ddd\J	.
8F#\L	16dd\] 16ddd\LL]	.
.	16ccc\	.
8A\ 8c\ 8d#\J	16bb\	.
.	16aa\JJ	.
=38	=38	=38
8G\L	8ee\ 8aa\L	.
8c\ 8e\J	[8ee\ [8gg\J	.
8E\L	16ee\] 16gg\LL]	.
.	16cc\	.
8G\ 8c\ 8e\J	16dd\	.
.	16ee\JJ	.
=39	=39	=39
8D\L	8b\ 8gg\	.
8G\ 8d\J	4b\ 4ff\	.
4GG\ 4G\	.	.
.	8f/ 8g/ 8b/	.
=40	=40	=40
*>B1	*>B1	*>B1
8CC/ 8C/	8e\ 8g\ 8cc\L	.
8r	16g\ 16gg\L	.
.	16g\ 16gg\JJ	.
4r	8g\ 8gg\L	.
.	8g\ 8gg\J	.
=41:|!	=41:|!	=41:|!
*>B2	*>B2	*>B2
8CC/ 8C/	8e/ 8g/ 8cc/	.
8r	8r	.
8CC/ 8C/	8ee\ 8ccc\)	.
8r	8r	.
=42	=42	=42
*>C	*>C	*>C
*k[b-e-a-d-]	*k[b-e-a-d-]	*k[b-e-a-d-]
8AA-\ 8A-\L	8cc\ 8ee-\ 8ccc\L	.
8E-\ 8A-\ 8c\J	[8cc\ [8ee-\ [8ccc\J	.
8EE-\ 8E-\L	16cc\] 16ee-\] 16ccc\LL]	.
.	16ee-\	.
8E-\ 8A-\ 8c\J	16aa-\	.
.	16bb-\JJ	.
=43	=43	=43
8AA-\ 8A-\L	16cc\ 16ee-\ 16ccc\LK	.
.	8cc\ 8ee-\ 8ccc\	.
8E-\ 8A-\ 8c\J	.	.
.	[16cc\ [16ee-\ [16ccc\Jk	.
8EE-\ 8E-\L	16cc\] 16ee-\] 16ccc\LL]	.
.	16cc\ 16ccc\	.
8E-\ 8A-\ 8c\J	16dd-\ 16ddd-\	.
.	16ee-\ 16eee-\JJ	.
=44	=44	=44
8DD-\ 8D-\L	8ff\ 8aa-\ 8fff\L	.
8F\ 8A-\ 8d-\J	[8ff\ [8aa-\ [8fff\J	.
8DD-\ 8D-\L	16ff\] 16aa-\] 16fff\LL]	.
.	16ff\ 16aa-\ 16fff\	.
8F\ 8A-\ 8d-\J	16ee-\ 16gg\ 16eee-\	.
.	16dd-\ 16ff\ 16ddd-\JJ	.
=45	=45	=45
8AA-\ 8A-\L	16cc\ 16ee-\ 16ccc\LK	.
.	8cc\ 8ee-\ 8ccc\	.
8E-\ 8A-\ 8c\J	.	.
.	[16cc\ [16ee-\ [16ccc\Jk	.
8EE-\ 8E-\L	16cc\] 16ee-\] 16ccc\LL]	.
.	16cc\ 16ccc\	.
8E-\ 8A-\ 8c\J	16b-\ 16bb-\	.
.	16a-\ 16aa-\JJ	.
=46	=46	=46
8BB-\ 8B-\L	8g\ 8dd-\ 8gg\L	.
8E-\ 8B-\ 8d-\J	[8g\ [8dd-\ [8gg\J	.
8EE-\ 8E-\L	16g\] 16dd-\] 16gg\LL]	.
.	16e-\ 16ee-\	.
8E-\ 8B-\ 8d-\J	16f\ 16ff\	.
.	16g\ 16gg\JJ	.
=47	=47	=47
8AA-\ 8A-\L	16a-\ 16cc\ 16aa-\LK	.
.	8a-\ 8cc\ 8aa-\	.
8E-\ 8A-\ 8c\J	.	.
.	[16a-\ [16cc\ [16aa-\Jk	.
8EE-\ 8E-\L	16a-\] 16cc\] 16aa-\LL]	.
.	16cc\ 16ccc\	.
8E-\ 8A-\ 8c\J	16b-\ 16bb-\	.
.	16a-\ 16aa-\JJ	.
=48	=48	=48
8DD-/ 8D-/L	8f\ 8b-\ 8ff\L	.
8BBB-/ 8BB-/J	[8dd-\ [8ff\ [8ddd-\J	.
8EE-\ 8E-\L	16dd-\] 16ff\] 16ddd-\LL]	.
.	16dd-\ 16ddd-\	.
8E-\ 8G\ 8d-\J	16cc\ 16ccc\	.
.	16b-\ 16bb-\JJ	.
=49	=49	=49
8A-\ 8c\	8a-\ 8aa-\L	.
8r	16a-\ 16aa-\L	.
.	16a-\ 16aa-\JJ	.
4r	8a-\ 8aa-\L	.
.	8b-\ 8bb-\J	.
=50	=50	=50
8En\L	8bn\ 8bbn\L	.
8G#\ 8Bn\J	[8b\ [8bb\J	.
8E\L	16b\] 16bb\LL]	.
.	16en\ 16een\	.
8G#\ 8B\J	16g#\ 16gg#\	.
.	16bn\ 16bbn\JJ	.
=51	=51	=51
8D#\L	16f#\ 16bn\ 16dd#\ 16ff#\LK	.
.	8f#\ 8b\ 8dd#\ 8ff#\	.
8F#\ 8Bn\J	.	.
.	[16f#\ 16b\ [16dd#\ [16ff#\Jk	.
8BB-\L	16f#\] 16b\ 16dd#\] 16ff#\LL]	.
.	16f#\ 16ff#\	.
8D#\ 8F#\ 8B\J	16bn\ 16bbn\	.
.	16dd#\ 16ddd#\JJ	.
=52	=52	=52
8FF#\L	8cc#\ 8ccc#\L	.
8En\ 8F#\ 8A#\J	[8cc#\ [8ccc#\J	.
8FF#\L	16cc#\] 16ccc#\LL]	.
.	16f#\ 16ff#\	.
8E\ 8F#\ 8A#\J	16g#\ 16gg#\	.
.	16a#\ 16aa#\JJ	.
=53	=53	=53
8BBn\ 8D#\ 8F#\ 8Bn\	8bn\ 8bbn\L	.
8r	16b\ 16bb\L	.
.	16b\ 16bb\JJ	.
4r	8b\ 8bb\L	.
.	8b\ 8bb\J	.
=54	=54	=54
8E-\L	8bn\ 8bbn\L	.
8G#\ 8Bn\J	[8b\ [8bb\J	.
8E-\L	16b\] 16bb\LL]	.
.	16en\ 16een\	.
8G#\ 8B\J	16g#\ 16gg#\	.
.	16bn\ 16bb\JJ	.
=55	=55	=55
8E-\L	16cc\ 16ee-\ 16ccc\LK	.
.	8cc\ 8ee-\ 8ccc\	.
8E-\ 8A-\ 8c\J	.	.
.	[16cc\ [16ee-\ [16ccc\Jk	.
8E-\L	16cc\] 16ee-\] 16ccc\LL]	.
.	16cc\ 16ccc\	.
8A-\ 8c\J	16b-\ 16bb-\	.
.	16a-\ 16aa-\JJ	.
=56	=56	=56
8EE-\ 8E-\L	8g\ 8dd-\ 8gg\L	.
8E-\ 8G\ 8d-\J	[8ee-\ [8eee-\J	.
8EE-\ 8E-\L	16ee-\] 16eee-\LL]	.
.	16dd-\ 16ddd-\	.
8E-\ 8G\ 8d-\J	16cc\ 16ccc\	.
.	16b-\ 16bb-\JJ	.
=57	=57	=57
*>C1	*>C1	*>C1
8A-\ 8c\	8a-\ 8aa-\L	.
8r	16ee-\L	.
.	16ee-\JJ	.
4r	8ee-\L	.
.	8ee-\J	.
=58:|!	=58:|!	=58:|!
*>C2	*>C2	*>C2
8A-\ 8c\	8a-\ 8aa-\L	.
8r	16a-\ 16aa-\L	.
.	16a-\ 16aa-\JJ	.
4D-\ 4F\ 4A-\ 4d-\	8a-\ 8aa-\L	.
.	8a-\ 8aa-\J	.
=59	=59	=59
*>D	*>D	*>D
8C\ 8F\ 8An\L	8an\ 8aan\L	.
[8F\ [8f\J	[8ff\ [8fff\J	.
16F\] 16f\LL]	16ff\] 16fff\LL]	.
16En\ 16en\	16een\ 16eeen\	.
16Dn\ 16dn\	16ddn\ 16dddn\	.
16C\ 16c\JJ	16cc\ 16ccc\JJ	.
=60	=60	=60
16EEn/ 16En/LL	16g\ 16gg\LL	.
16FF/ 16F/J	16an\ 16aan\J	.
[8GG/ [8G/J	[8b-\ [8bb-\J	.
16GG/] 16G/LL]	16b-\] 16bb-\LL]	.
16CC/ 16C/	16b-\ 16ddn\ 16bb-\	.
16DDn/ 16Dn/	16an\ 16cc\ 16aan\	.
16EEn/ 16En/JJ	16g\ 16b-\ 16gg\JJ	.
=61	=61	=61
8FF/ 8F/	8f\ 8an\ 8ff\	.
4DD-/ 4D-/	4f\ 4a-\ 4dd-\ 4ff\	.
8DD-/ 8D-/	8f\ 8a-\ 8dd-\ 8ff\	.
=62	=62	=62
8FF/ 8F/	8f\ 8an\ 8cc\ 8ff\	.
8r	8r	.
8FFF/ 8FF/	8ff\ 8aa-\ 8ccc\ 8fff\	.
8r	8r	.
=63!|:	=63!|:	=63!|:
*>E	*>E	*>E
*k[b-]	*k[b-]	*k[b-]
8E\L	8.g\ 8.b-\L	p
8G\ 8B-\ 8c\J	.	.
.	16cc\Jk	.
8C\L	8.g\ 8.b-\L	.
8G\ 8B-\ 8c\J	.	.
.	16cc\Jk	.
=64	=64	=64
8E\L	16r	.
.	16ee\LL	.
8G\ 8B-\ 8c\J	16dd\	.
.	16cc\JJ	.
8C\L	16b-\LL	.
.	16a\	.
8G\ 8B-\ 8c\J	16b-\	.
.	16g\JJ	.
=65	=65	=65
8F\L	8.f\ 8.a\L	.
8A\ 8c\J	.	.
.	16cc\Jk	.
4C\	8.f\ 8.a\L	.
.	16cc\Jk	.
=66	=66	=66
8F\L	16r	.
.	16ff\LL	.
8A\ 8c\J	16ee\	.
.	16dd\JJ	.
8C\L	16cc\LL	.
.	16bn\	.
8A\ 8c\J	16cc\	.
.	16a\JJ	.
=67	=67	=67
8G\L	8.b-\ 8.aa\L	.
8B-\ 8c\ 8e\J	.	.
.	16gg\Jk	.
8C\L	[4b-\	.
8B-\ 8c\ 8e\J	.	.
=68	=68	=68
4G\	16b-\LL]	.
.	16cc\	.
.	16b-\ 16ee\	.
.	16cc\JJ	.
4C\	16dd\LL	.
.	16ee\	.
.	16dd\	.
.	16cc\JJ	.
=69	=69	=69
8F\L	8.a\ 8.gg\L	.
8A\ 8f\J	.	.
.	16ff\Jk	.
8C\L	[4a/	.
8A\ 8c\ 8f\J	.	.
=70	=70	=70
8F\L	16a\LL]	.
.	16a\	.
8A\ 8c\ 8f\J	16dd\	.
.	16a\JJ	.
8C\L	16cc\LL	.
.	16dd\	.
8A\ 8c\ 8f\J	16cc\	.
.	16a\JJ	.
=71	=71	=71
8E\L	8.g\ 8.b-\L	.
8G\ 8B-\ 8c\J	.	.
.	16cc\Jk	.
8C\L	8.g\ 8.b-\L	.
8G\ 8B-\ 8c\J	.	.
.	16cc\Jk	.
=72	=72	=72
8E\L	16r	.
.	16ee\LL	.
8G\ 8B-\ 8c\J	16dd\	.
.	16cc\JJ	.
8C\L	16b-\LL	.
.	16a\	.
8G\ 8B-\ 8c\J	16b-\	.
.	16g\JJ	.
=73	=73	=73
8F\L	8.f\ 8.a\L	.
8A\ 8c\J	.	.
.	16cc\Jk	.
8C\L	8.f\ 8.a\L	.
8A\J	.	.
.	16cc\Jk	.
=74	=74	=74
8F\L	16r	.
.	16ff\LL	.
8A\ 8c\J	16ee\	.
.	16dd\JJ	.
8C\L	16cc\LL	.
.	16bn\	.
8A\ 8c\J	16cc\	.
.	16a\JJ	.
=75	=75	=75
8D-\L	8.f\ 8.ff\L	f
8F\ 8A-\ 8Bn\J	.	.
.	16g\ 16gg\Jk	.
8D-\L	4a-\ 4aa-\	.
8F\ 8A-\ 8B\J	.	.
=76	=76	=76
8C\L	16r	.
.	16ff\LL	p
8F\ 8An\ 8c\J	16cc\ 16aan\	.
.	16ff\JJ	.
8C\L	16gg\LL	.
.	16aa\	.
8A\ 8c\ 8f\J	16gg\	.
.	16ff\JJ	.
=77	=77	=77
8G\L	16bb-\LL)	.
.	16aa\J	.
8B-\ 8c\ 8e\J	[8gg\J	.
8C\L	16gg\LL]	.
.	16bb-\	.
8B-\ 8c\ 8e\J	16aa\	.
.	16gg\JJ	.
=78	=78	=78
*>E1	*>E1	*>E1
8F\ 8A\ 8c\ 8f\	8ff\L	.
8r	16cc\L	.
.	16cc\JJ	.
4r	8cc\L	.
.	8cc\J	.
=79:|!	=79:|!	=79:|!
*>E2	*>E2	*>E2
8F\ 8A\ 8c\ 8f\	8ff\	.
8r	8r	.
8FF\L	8F/L	.
8FF#\J	8F#/J	.
=80	=80	=80
*>F	*>F	*>F
*^	*	*
8G/L	8GG\L	2r	.
[8A/J	[8AA\J	.	.
16A/LL]	16AA\LL]	.	.
16G/	16GG\	.	.
16F#/	16FF#\	.	.
16G/JJ	16GG\JJ	.	.
=81	=81	=81	=81
8c/L	8C\L	2r	.
[8d/J	[8D\J	.	.
16d/LL]	16D\LL]	.	.
16c/	16C\	.	.
16Bn/	16BBn\	.	.
16c/JJ	16C\JJ	.	.
*v	*v	*	*
=82	=82	=82
4G\ 4Bn\ 4fn\	16a/LL)	.
.	16g/	.
.	16f#/	.
.	16g/JJ	.
4G\ 4B\ 4f\	16g#/LL	.
.	16a/	.
.	16a#/	.
.	16b/JJ	.
=83	=83	=83
8c\ 8e\	8cc\	.
8r	8r	.
8CC/ 8C/	8ee\ 8ccc\)	.
8r	8r	.
=84!|:	=84!|:	=84!|:
*>G	*>G	*>G
*k[]	*k[]	*k[]
8FF\L	8a\ 8ff\ 8aa\	f
8A\ 8c\ 8f\J	4cc\ 4aa\ 4ccc\	.
8AA\L	.	.
8A\ 8c\ 8f\J	8a\ 8ff\ 8aa\	.
=85	=85	=85
8C\L	8a\ 8ff\ 8aa\	.
8G\ 8c\ 8e\J	4.g\ 4.ee\ 4.gg\	.
8E\L	.	.
8G\ 8c\ 8e\J	.	.
=86	=86	=86
8GG\L	16dd\ 16ff\LL	.
.	16cc\ 16ee\	.
8G\ 8B\ 8f\J	16b\ 16dd\	.
.	16cc\ 16ee\JJ	.
8BB\L	16dd\ 16ff\LK	.
.	8ff\ 8aa\	.
8G\ 8B\ 8f\J	.	.
.	16ff\ 16aa\Jk	.
=87	=87	=87
8C\L	16ee\ 16gg\LL	.
.	16dd\ 16ff\	.
8G\ 8c\ 8e\J	16cc\ 16ee\	.
.	16dd\ 16ff\JJ	.
8C\L	16ee\ 16gg\LK	.
.	8ee\ 8ccc\	.
8A\ 8c\ 8f\J	.	.
.	16ee\ 16ccc\Jk	.
=88	=88	=88
8FF\L	8a\ 8ff\ 8aa\	.
8A\ 8c\ 8f\J	4cc\ 4aa\ 4ccc\	.
8AA\L	.	.
8A\ 8c\ 8f\J	8a\ 8ff\ 8aa\	.
=89	=89	=89
8C\L	8a\ 8ff\ 8aa\	.
8G\ 8c\ 8e\J	4.g\ 4.ee\ 4.gg\	.
8E\L	.	.
8A\ 8c\ 8e\J	.	.
=90	=90	=90
4AA\ 4A\	16cc\ 16ee\ 16ccc\LL	.
.	16b\ 16ee\ 16bb\	.
.	16a\ 16ee\ 16aa\	.
.	16b\ 16ee\ 16bb\JJ	.
8FF/ 8F/L	16cc\ 16aa\ 16ccc\LL	.
.	16cc#\ 16aa\ 16ccc#\	.
8FF/ 8F/J	16dd\ 16aa\ 16bb\ 16ddd\	.
.	16dd#\ 16aa\ 16bb\ 16ddd#\JJ	.
=91	=91	=91
8EE/ 8E/	8ee\ 8gg#\ 8bb\ 8eee\	.
8r	8r	.
4C^\ 4c^\	4b-^\ 4ee^\ 4ggn^\	.
=92	=92	=92
8FF\L	8a\ 8ff\ 8aa\	f
8A\ 8c\ 8f\J	4cc\ 4aa\ 4ccc\	.
8AA\L	.	.
8A\ 8c\ 8f\J	8a\ 8ff\ 8aa\	.
=93	=93	=93
8C\L	8a\ 8ff\ 8aa\	.
8G\ 8c\ 8e\J	4.g\ 4.ee\ 4.gg\	.
8E\L	.	.
8G\ 8c\ 8e\J	.	.
=94	=94	=94
8GG\L	16dd\ 16ff\LL	.
.	16cc\ 16ee\	.
8G\ 8B\ 8f\J	16b\ 16dd\	.
.	16cc\ 16ee\JJ	.
8BB\L	16dd\ 16ff\LK	.
.	8ff\ 8aa\	.
8G\ 8B\ 8f\J	.	.
.	16ff\ 16aa\Jk	.
=95	=95	=95
8C\L	16ee\ 16gg\LL	.
.	16dd\ 16ff\	.
8G\ 8c\ 8e\J	16cc\ 16ee\	.
.	16dd\ 16ff\JJ	.
8E\L	16ee\ 16gg\LK	.
.	8ee\ 8ccc\	.
8G\ 8c\ 8e\J	.	.
.	16ee\ 16ccc\Jk	.
=96	=96	=96
8F\L	8dd\ 8ddd\L	.
8A\ 8c\ 8d\J	[8dd\ [8ddd\J	.
8F#\L	16dd\] 16ddd\LL]	.
.	16ccc\	.
8A\ 8c\ 8d#\J	16bb\	.
.	16aa\JJ	.
=97	=97	=97
8G\L	8ee\ 8aa\L	.
8c\ 8e\J	[8ee\ [8gg\J	.
8E\L	16ee\] 16gg\LL]	.
.	16cc\	.
8G\ 8c\ 8e\J	16dd\	.
.	16ee\JJ	.
=98	=98	=98
8D\L	8b\ 8gg\	.
8G\ 8d\J	4b\ 4ff\	.
4GG\ 4G\	.	.
.	8f/ 8g/ 8b/	.
=99	=99	=99
*>G1	*>G1	*>G1
8CC/ 8C/	8e\ 8g\ 8cc\L	.
8r	16g\ 16gg\L	.
.	16g\ 16gg\JJ	.
4r	8g\ 8gg\L	.
.	8g\ 8gg\J	.
=100:|!	=100:|!	=100:|!
*>G2	*>G2	*>G2
8CC/ 8C/	8e/ 8g/ 8cc/	.
8r	8r	.
8CC/ 8C/	8ee\ 8ccc\)	.
==	==	==
*-	*-	*-
